static/img/kroki/15438341f41b680d8eb21f7d0259f494.svg

<?xml version="1.0" encoding="us-ascii" standalone="no"?><svg xmlns="http://www.w3.org/2000/svg" xmlns:xlink="http://www.w3.org/1999/xlink" contentStyleType="text/css" height="573px" preserveAspectRatio="none" style="width:294px;height:573px;" version="1.1" viewBox="0 0 294 573" width="294px" zoomAndPan="magnify"><defs/><g><!--class ai_model--><g id="elem_ai_model"><rect codeLine="23" fill="#3D176E" height="39.7891" id="ai_model" rx="2.5" ry="2.5" style="stroke:#000D19;stroke-width:0.5;" width="118" x="27" y="367.37"/><ellipse cx="42" cy="387.2645" fill="#ADD1B2" rx="11" ry="11" style="stroke:#181818;stroke-width:1.0;"/><path d="M44.9688,392.9052 Q44.3906,393.202 43.75,393.3427 Q43.1094,393.4989 42.4063,393.4989 Q39.9063,393.4989 38.5781,391.8583 Q37.2656,390.202 37.2656,387.077 Q37.2656,383.952 38.5781,382.2958 Q39.9063,380.6395 42.4063,380.6395 Q43.1094,380.6395 43.75,380.7958 Q44.4063,380.952 44.9688,381.2489 L44.9688,383.9677 Q44.3438,383.3895 43.75,383.1239 Q43.1563,382.8427 42.5313,382.8427 Q41.1875,382.8427 40.5,383.9208 Q39.8125,384.9833 39.8125,387.077 Q39.8125,389.1708 40.5,390.2489 Q41.1875,391.3114 42.5313,391.3114 Q43.1563,391.3114 43.75,391.0458 Q44.3438,390.7645 44.9688,390.1864 L44.9688,392.9052 Z " fill="#000000"/><text fill="#D9B8FF" font-family="Helvetica" font-size="17" lengthAdjust="spacing" textLength="76" x="61" y="393.1498">ai_model</text></g><!--class ai_resource--><g id="elem_ai_resource"><rect codeLine="26" fill="#3D176E" height="39.7891" id="ai_resource" rx="2.5" ry="2.5" style="stroke:#000D19;stroke-width:0.5;" width="137" x="12.5" y="167.79"/><ellipse cx="27.5" cy="187.6845" fill="#ADD1B2" rx="11" ry="11" style="stroke:#181818;stroke-width:1.0;"/><path d="M30.4688,193.3252 Q29.8906,193.622 29.25,193.7627 Q28.6094,193.9189 27.9063,193.9189 Q25.4063,193.9189 24.0781,192.2783 Q22.7656,190.622 22.7656,187.497 Q22.7656,184.372 24.0781,182.7158 Q25.4063,181.0595 27.9063,181.0595 Q28.6094,181.0595 29.25,181.2158 Q29.9063,181.372 30.4688,181.6689 L30.4688,184.3877 Q29.8438,183.8095 29.25,183.5439 Q28.6563,183.2627 28.0313,183.2627 Q26.6875,183.2627 26,184.3408 Q25.3125,185.4033 25.3125,187.497 Q25.3125,189.5908 26,190.6689 Q26.6875,191.7314 28.0313,191.7314 Q28.6563,191.7314 29.25,191.4658 Q29.8438,191.1845 30.4688,190.6064 L30.4688,193.3252 Z " fill="#000000"/><text fill="#D9B8FF" font-family="Helvetica" font-size="17" lengthAdjust="spacing" textLength="95" x="46.5" y="193.5698">ai_resource</text></g><!--class aws_bedrock_custom_model--><g id="elem_aws_bedrock_custom_model"><rect codeLine="29" fill="#3D176E" height="39.7891" id="aws_bedrock_custom_model" rx="2.5" ry="2.5" style="stroke:#000D19;stroke-width:0.5;" width="280" x="7" y="528.16"/><ellipse cx="22" cy="548.0545" fill="#ADD1B2" rx="11" ry="11" style="stroke:#181818;stroke-width:1.0;"/><path d="M24.9688,553.6952 Q24.3906,553.992 23.75,554.1327 Q23.1094,554.2889 22.4063,554.2889 Q19.9063,554.2889 18.5781,552.6483 Q17.2656,550.992 17.2656,547.867 Q17.2656,544.742 18.5781,543.0858 Q19.9063,541.4295 22.4063,541.4295 Q23.1094,541.4295 23.75,541.5858 Q24.4063,541.742 24.9688,542.0389 L24.9688,544.7577 Q24.3438,544.1795 23.75,543.9139 Q23.1563,543.6327 22.5313,543.6327 Q21.1875,543.6327 20.5,544.7108 Q19.8125,545.7733 19.8125,547.867 Q19.8125,549.9608 20.5,551.0389 Q21.1875,552.1014 22.5313,552.1014 Q23.1563,552.1014 23.75,551.8358 Q24.3438,551.5545 24.9688,550.9764 L24.9688,553.6952 Z " fill="#000000"/><text fill="#D9B8FF" font-family="Helvetica" font-size="17" lengthAdjust="spacing" textLength="238" x="41" y="553.9398">aws_bedrock_custom_model</text></g><!--class aws_resource--><g id="elem_aws_resource"><rect codeLine="32" fill="#3D176E" height="39.7891" id="aws_resource" rx="2.5" ry="2.5" style="stroke:#000D19;stroke-width:0.5;" width="155" x="130.5" y="267.58"/><ellipse cx="145.5" cy="287.4745" fill="#ADD1B2" rx="11" ry="11" style="stroke:#181818;stroke-width:1.0;"/><path d="M148.4688,293.1152 Q147.8906,293.412 147.25,293.5527 Q146.6094,293.7089 145.9063,293.7089 Q143.4063,293.7089 142.0781,292.0683 Q140.7656,290.412 140.7656,287.287 Q140.7656,284.162 142.0781,282.5058 Q143.4063,280.8495 145.9063,280.8495 Q146.6094,280.8495 147.25,281.0058 Q147.9063,281.162 148.4688,281.4589 L148.4688,284.1777 Q147.8438,283.5995 147.25,283.3339 Q146.6563,283.0527 146.0313,283.0527 Q144.6875,283.0527 144,284.1308 Q143.3125,285.1933 143.3125,287.287 Q143.3125,289.3808 144,290.4589 Q144.6875,291.5214 146.0313,291.5214 Q146.6563,291.5214 147.25,291.2558 Q147.8438,290.9745 148.4688,290.3964 L148.4688,293.1152 Z " fill="#000000"/><text fill="#D9B8FF" font-family="Helvetica" font-size="17" lengthAdjust="spacing" textLength="113" x="164.5" y="293.3598">aws_resource</text></g><!--class resource--><g id="elem_resource"><rect codeLine="35" fill="#3D176E" height="39.7891" id="resource" rx="2.5" ry="2.5" style="stroke:#000D19;stroke-width:0.5;" width="113" x="87.5" y="7"/><ellipse cx="102.5" cy="26.8945" fill="#ADD1B2" rx="11" ry="11" style="stroke:#181818;stroke-width:1.0;"/><path d="M105.4688,32.5352 Q104.8906,32.832 104.25,32.9727 Q103.6094,33.1289 102.9063,33.1289 Q100.4063,33.1289 99.0781,31.4883 Q97.7656,29.832 97.7656,26.707 Q97.7656,23.582 99.0781,21.9258 Q100.4063,20.2695 102.9063,20.2695 Q103.6094,20.2695 104.25,20.4258 Q104.9063,20.582 105.4688,20.8789 L105.4688,23.5977 Q104.8438,23.0195 104.25,22.7539 Q103.6563,22.4727 103.0313,22.4727 Q101.6875,22.4727 101,23.5508 Q100.3125,24.6133 100.3125,26.707 Q100.3125,28.8008 101,29.8789 Q101.6875,30.9414 103.0313,30.9414 Q103.6563,30.9414 104.25,30.6758 Q104.8438,30.3945 105.4688,29.8164 L105.4688,32.5352 Z " fill="#000000"/><text fill="#D9B8FF" font-family="Helvetica" font-size="17" lengthAdjust="spacing" textLength="71" x="121.5" y="32.7798">resource</text></g><!--reverse link ai_resource to ai_model--><g id="link_ai_resource_ai_model"><path codeLine="38" d="M81.9426,225.9843 C82.8926,263.7543 84.55,329.05 85.51,366.88 " fill="none" id="ai_resource-backto-ai_model" style="stroke:#FFAF37;stroke-width:2.0;"/><polygon fill="none" points="81.49,207.99,75.9445,226.1352,87.9407,225.8334,81.49,207.99" style="stroke:#FFAF37;stroke-width:2.0;"/></g><!--reverse link resource to ai_resource--><g id="link_resource_ai_resource"><path codeLine="39" d="M129.7613,63.781 C117.6513,94.301 100.75,136.9 88.63,167.47 " fill="none" id="resource-backto-ai_resource" style="stroke:#FFAF37;stroke-width:2.0;"/><polygon fill="none" points="136.4,47.05,124.1843,61.5681,135.3383,65.9939,136.4,47.05" style="stroke:#FFAF37;stroke-width:2.0;"/></g><!--reverse link ai_model to aws_bedrock_custom_model--><g id="link_ai_model_aws_bedrock_custom_model"><path codeLine="40" d="M99.8128,424.2236 C111.5328,454.7436 127.88,497.27 139.62,527.83 " fill="none" id="ai_model-backto-aws_bedrock_custom_model" style="stroke:#FFAF37;stroke-width:2.0;"/><polygon fill="none" points="93.36,407.42,94.2116,426.3745,105.414,422.0727,93.36,407.42" style="stroke:#FFAF37;stroke-width:2.0;"/></g><!--reverse link aws_resource to aws_bedrock_custom_model--><g id="link_aws_resource_aws_bedrock_custom_model"><path codeLine="41" d="M199.3781,325.0093 C188.1281,372.7093 162.92,479.56 151.57,527.66 " fill="none" id="aws_resource-backto-aws_bedrock_custom_model" style="stroke:#FFAF37;stroke-width:2.0;"/><polygon fill="none" points="203.51,307.49,193.5383,323.632,205.2179,326.3866,203.51,307.49" style="stroke:#FFAF37;stroke-width:2.0;"/></g><!--reverse link resource to aws_resource--><g id="link_resource_aws_resource"><path codeLine="42" d="M153.0317,64.3835 C164.8317,112.0935 191.29,218.98 203.2,267.08 " fill="none" id="resource-backto-aws_resource" style="stroke:#FFAF37;stroke-width:2.0;"/><polygon fill="none" points="148.71,46.91,147.2072,65.8241,158.8562,62.9429,148.71,46.91" style="stroke:#FFAF37;stroke-width:2.0;"/></g><!--SRC=[XP3BRi8m44Nt_WfBh96Wg0r8tG1IrMvGLRf7ZZq6Ax4d6Zj5zF7lXGAfym2sznvxpip6AE1WYx3Z5cmAv9dFZ2i42SkdHBYTOux4UreBFKgQvHEwS1DO20ly6V8F24QA9l6-CJ9pu3s_YwgPaDcQi7Jg-7qWuVo-0XSYQfuBxwSXa4dB096CcgHZhPjayzFUI0sJ1sXXI0heX0m60pMSD96RewxkNH5Bymby61zjWG5QcgqHVzHLomCHIROMFVSN7L-5KiQj-NsKlHsTo07LykL6ADmUQ2ro7u_n0GWmx0gOjxQ2oLZff1D-kGGpUJWT5sPbKK7ElnZx-Sy8F9OaeHPl_Ie5HIYpbInzGDlnTCzqlQrdyO37xtw_NscmTdvEMALwgYxei9h33RQ3g-Rz0W00]--></g></svg>

<svg xmlns="http://www.w3.org/2000/svg" width="294" height="573" viewBox="0 0 294 573"><rect width="118" height="39.789" x="27" y="367.37" fill="#3D176E" rx="2.5" ry="2.5" style="stroke:#000d19;stroke-width:.5"/><circle cx="42" cy="387.264" r="11" fill="#ADD1B2" style="stroke:#181818;stroke-width:1"/><path d="M44.969 392.905q-.578.297-1.219.438-.64.156-1.344.156-2.5 0-3.828-1.64-1.312-1.657-1.312-4.782t1.312-4.781q1.328-1.656 3.828-1.656.703 0 1.344.156.656.156 1.219.453v2.719q-.625-.579-1.219-.844-.594-.281-1.219-.281-1.343 0-2.031 1.078-.687 1.062-.687 3.156t.687 3.172q.688 1.062 2.031 1.062.625 0 1.219-.265.594-.281 1.219-.86z"/><text x="61" y="393.15" fill="#D9B8FF" font-family="Helvetica" font-size="17" textLength="76">ai_model</text><rect width="137" height="39.789" x="12.5" y="167.79" fill="#3D176E" rx="2.5" ry="2.5" style="stroke:#000d19;stroke-width:.5"/><circle cx="27.5" cy="187.685" r="11" fill="#ADD1B2" style="stroke:#181818;stroke-width:1"/><path d="M30.469 193.325q-.578.297-1.219.438-.64.156-1.344.156-2.5 0-3.828-1.64-1.312-1.657-1.312-4.782t1.312-4.781q1.328-1.656 3.828-1.656.703 0 1.344.156.656.156 1.219.453v2.719q-.625-.578-1.219-.844-.594-.281-1.219-.281-1.343 0-2.031 1.078-.687 1.062-.687 3.156t.687 3.172q.688 1.062 2.031 1.062.625 0 1.219-.265.594-.281 1.219-.86z"/><text x="46.5" y="193.57" fill="#D9B8FF" font-family="Helvetica" font-size="17" textLength="95">ai_resource</text><rect width="280" height="39.789" x="7" y="528.16" fill="#3D176E" rx="2.5" ry="2.5" style="stroke:#000d19;stroke-width:.5"/><circle cx="22" cy="548.054" r="11" fill="#ADD1B2" style="stroke:#181818;stroke-width:1"/><path d="M24.969 553.695q-.578.297-1.219.438-.64.156-1.344.156-2.5 0-3.828-1.64-1.312-1.657-1.312-4.782t1.312-4.781q1.328-1.657 3.828-1.657.703 0 1.344.157.656.156 1.219.453v2.719q-.625-.579-1.219-.844-.594-.281-1.219-.281-1.343 0-2.031 1.078-.687 1.062-.687 3.156t.687 3.172q.688 1.062 2.031 1.062.625 0 1.219-.265.594-.282 1.219-.86z"/><text x="41" y="553.94" fill="#D9B8FF" font-family="Helvetica" font-size="17" textLength="238">aws_bedrock_custom_model</text><rect width="155" height="39.789" x="130.5" y="267.58" fill="#3D176E" rx="2.5" ry="2.5" style="stroke:#000d19;stroke-width:.5"/><circle cx="145.5" cy="287.474" r="11" fill="#ADD1B2" style="stroke:#181818;stroke-width:1"/><path d="M148.469 293.115q-.578.297-1.219.438-.64.156-1.344.156-2.5 0-3.828-1.64-1.312-1.657-1.312-4.782t1.312-4.781q1.328-1.656 3.828-1.656.703 0 1.344.156.656.156 1.219.453v2.719q-.625-.579-1.219-.844-.594-.281-1.219-.281-1.344 0-2.031 1.078-.687 1.062-.687 3.156t.687 3.172q.688 1.062 2.031 1.062.625 0 1.219-.265.594-.281 1.219-.86z"/><text x="164.5" y="293.36" fill="#D9B8FF" font-family="Helvetica" font-size="17" textLength="113">aws_resource</text><rect width="113" height="39.789" x="87.5" y="7" fill="#3D176E" rx="2.5" ry="2.5" style="stroke:#000d19;stroke-width:.5"/><circle cx="102.5" cy="26.895" r="11" fill="#ADD1B2" style="stroke:#181818;stroke-width:1"/><path d="M105.469 32.535q-.578.297-1.219.438-.64.156-1.344.156-2.5 0-3.828-1.64-1.312-1.657-1.312-4.782t1.312-4.781q1.328-1.656 3.828-1.656.703 0 1.344.156.656.156 1.219.453v2.719q-.625-.578-1.219-.844-.594-.281-1.219-.281-1.344 0-2.031 1.078-.687 1.062-.687 3.156t.687 3.172q.688 1.062 2.031 1.062.625 0 1.219-.265.594-.281 1.219-.86z"/><text x="121.5" y="32.78" fill="#D9B8FF" font-family="Helvetica" font-size="17" textLength="71">resource</text><g fill="none"><path d="M81.943 225.984c.95 37.77 2.607 103.066 3.567 140.896" style="stroke:#ffaf37;stroke-width:2"/><path d="m81.49 207.99-5.545 18.145 11.996-.302z" style="stroke:#ffaf37;stroke-width:2"/></g><path fill="none" d="M129.761 63.781C117.651 94.301 100.75 136.9 88.63 167.47M136.4 47.05l-12.216 14.518 11.154 4.426zM99.813 424.224c11.72 30.52 28.067 73.046 39.807 103.606M93.36 407.42l.852 18.954 11.202-4.301zm106.018-82.41c-11.25 47.7-36.458 154.55-47.808 202.65m51.94-220.17-9.972 16.142 11.68 2.755zM153.032 64.384c11.8 47.71 38.258 154.596 50.168 202.696M148.71 46.91l-1.503 18.914 11.65-2.881z" style="stroke:#ffaf37;stroke-width:2"/></svg>
